!!!COM:	Josquin des Prez
!!!CDT:	~1450-1521/08/27
!!!OPR:	Missa Pange lingua
!!!ONM:	1
!!!OTL:	Kyrie
!!!AGN:	Mass; Kyrie
!!!SCT:	NJE 4.3
!!!SCA:	New Josquin Edition 4.3
!!!voices: 4
!!!voices-OPR:	4
**kern	**kern	**kern	**kern
*staff4	*staff3	*staff2	*staff1
*clefF4	*clefGv2	*clefGv2	*clefG2
*Ivox	*Ivox	*Ivox	*Ivox
*I"Bassus	*I"Tenor	*I"Altus	*I"Superius
*I'B	*I'T	*I'A	*I'S
*>[A,B,C]	*>[A,B,C]	*>[A,B,C]	*>[A,B,C]
*>Kyrie1[A]	*>Kyrie1[A]	*>Kyrie1[A]	*>Kyrie1[A]
*>Christe[B]	*>Christe[B]	*>Christe[B]	*>Christe[B]
*>Kyrie2[C]	*>Kyrie2[C]	*>Kyrie2[C]	*>Kyrie2[C]
*>A	*>A	*>A	*>A
*k[]	*k[]	*k[]	*k[]
*M3/1	*M3/1	*M3/1	*M3/1
*met(O)	*met(O)	*met(O)	*met(O)
=1-	=1-	=1-	=1-
!!section: Kyrie I
!!!OMD: Kyrie I
0.r	1E	0.r	0.r
.	1E	.	.
.	1F	.	.
=2	=2	=2	=2
1AA	0E	0.r	0.r
1AA	.	.	.
1BB	2D/	.	.
.	2G/	.	.
=3	=3	=3	=3
0AA	2A/	0.r	0.r
.	1c	.	.
.	4B\	.	.
.	4A/	.	.
2.GG/	2.B\	.	.
4AA/	4c\	.	.
=4	=4	=4	=4
2BB/	2d\	0.r	0.r
2C/	2.e\	.	.
2E\	.	.	.
.	4d\	.	.
2F\	1c	.	.
1D	.	.	.
.	2B\	.	.
=5	=5	=5	=5
0C	0c	0.r	1e
.	.	.	1e
1D	2A/	.	1f
.	2B\	.	.
=6	=6	=6	=6
0AA	0c	1A	0e
.	.	1A	.
1r	1G	1B	2d/
.	.	.	2g/
=7	=7	=7	=7
0.r	0.r	0A	2a/
.	.	.	1cc
.	.	.	4b\
.	.	.	4a/
.	.	2.G/	2.b\
.	.	4A/	4cc\
=8	=8	=8	=8
0.r	0.r	2B\	2dd\
.	.	2c\	2.ee\
.	.	2e\	.
.	.	.	4dd\
.	.	2f\	1cc
.	.	1d	.
.	.	.	2b\
=9	=9	=9	=9
1C	0.r	0c	2.cc\
.	.	.	4b\
1C	.	.	2a/
.	.	.	2g/
1D	.	2A/	2f/
.	.	2B\	4e/
.	.	.	4d/
=10	=10	=10	=10
1.C	1c	2.c\	1e
.	.	4B\	.
.	1c	2G/	1r
2AA/	.	1A	.
1BB	1d	.	1r
.	.	2G#i/	.
=11	=11	=11	=11
1AA	1.c	2A/	1cc
.	.	2.e\	.
1A	.	.	1cc
.	.	4c\	.
.	2A/	2c\	.
1G	1B	2g\	1dd
.	.	2d\	.
=12	=12	=12	=12
2r	2.A/	2f\	1.cc
1A	.	2.e\	.
.	4B\	.	.
.	2c\	.	.
.	.	4c\	.
2F\	1d	2f\	2a/
1G	.	2.d\	1b
.	2B\	.	.
.	.	4e\	.
=13	=13	=13	=13
2D\	2d\	2.f\	1a
2.F\	2c\	.	.
.	.	4e\	.
.	2A/	2c\	2.cc\
4E\	.	.	.
4C/	2.c\	1e	.
4D\	.	.	4b\
4E\	.	.	2g/
4F\	4B\	.	.
2G\	2G/	2d\	2b\
=14	=14	=14	=14
2.F\	1A	2f\	2a/
.	.	4c\	2.cc\
4E\	.	4d\	.
4C/	2.c\	4e\	.
4D\	.	4f\	4b\
4E\	.	1g	4g/
4F\	4B\	.	4a/
2G\	2G/	.	4b\
.	.	.	4cc\
2D\	2B-\	[2f\	2dd\
=15	=15	=15	=15
2.F\	2A/	4f\]	2cc\
.	.	4e\	.
.	2.c\	4c\	2.a/
4E\	.	4d\	.
2C/	.	2e\	.
.	4B\	.	4g/
2E\	2G/	2c\	1g
1D	1A	[1dl	.
.	.	.	2f#i/
=16	=16	=16	=16
0.GGl	0.Gl	0.d]	0.gl
!!LO:LB:i:g=z
=17||	=17||	=17||	=17||
*>B	*>B	*>B	*>B
!!section: Christe
!!!OMD: Christe
*M2/1	*M2/1	*M2/1	*M2/1
*met(C|)	*met(C|)	*met(C|)	*met(C|)
0C	0r	0r	0r
=18	=18	=18	=18
1D	0r	0r	0r
[1F	.	.	.
=19	=19	=19	=19
2F\]	0r	0c	0r
4E\	.	.	.
4D\	.	.	.
1E	.	.	.
=20	=20	=20	=20
[0D	0r	1d	0r
.	.	[1f	.
=21	=21	=21	=21
1D]	0r	2f\]	0r
.	.	4e\	.
.	.	4d\	.
1C	.	1e	.
=22	=22	=22	=22
1D	0r	[0d	0r
[1F	.	.	.
=23	=23	=23	=23
2F\]	0r	1d]	0r
4E\	.	.	.
4D\	.	.	.
2E\	.	1c	.
[2F\	.	.	.
=24	=24	=24	=24
4F\]	0r	1d	0r
4E\	.	.	.
4D\	.	.	.
4C/	.	.	.
1D	.	[1f	.
=25	=25	=25	=25
0C	0G	2f\]	0r
.	.	4e\	.
.	.	4d\	.
.	.	2e\	.
.	.	[2c\	.
=26	=26	=26	=26
0AA	1A	4c\]	0r
.	.	4B\	.
.	.	4A/	.
.	.	4G/	.
.	[1c	1A	.
=27	=27	=27	=27
0E	2c\]	1G	0g
.	4B\	.	.
.	4A/	.	.
.	1B	1E	.
=28	=28	=28	=28
0r	[0A	[0e	1a
.	.	.	[1cc
=29	=29	=29	=29
0r	1A]	0e_	2cc\]
.	.	.	4b\
.	.	.	4a/
.	1G	.	1b
=30	=30	=30	=30
0r	1A	0e]	[0a
.	[1c	.	.
=31	=31	=31	=31
0r	2c\]	0r	1a]
.	4B\	.	.
.	4A/	.	.
.	2B\	.	1g
.	[2c\	.	.
=32	=32	=32	=32
0r	4c\]	0r	1a
.	4B\	.	.
.	4A/	.	.
.	4G/	.	.
.	1A	.	[1cc
=33	=33	=33	=33
0r	1G	0r	2cc\]
.	.	.	4b\
.	.	.	4a/
.	2r	.	1b
.	[2d\	.	.
=34	=34	=34	=34
0r	4d\]	0r	2.a/
.	4c\	.	.
.	4d\	.	.
.	4e\	.	4g/
.	2f\	.	2a/
.	[2e\	.	[2g/
=35	=35	=35	=35
0r	2e\]	1r	2g/]
.	1d	.	2f/
.	.	1A	1e
.	2c#i\	.	.
=36	=36	=36	=36
0r	[0d	1B	0d
.	.	[1G	.
=37	=37	=37	=37
1r	0d]	2G/]	0r
.	.	4F/	.
.	.	4E/	.
1D	.	1F	.
=38	=38	=38	=38
1E	0r	2.E/	0r
.	.	4F/	.
[1C	.	2G/	.
.	.	2A/	.
=39	=39	=39	=39
2C/]	0r	2G/	0r
4BB/	.	1A	.
4AA/	.	.	.
1BB	.	.	.
.	.	2G/	.
=40	=40	=40	=40
2.AA/	0r	2A/	0r
.	.	2F/	.
4BB/	.	.	.
2C/	.	2E/	.
2D\	.	[2A/	.
=41	=41	=41	=41
2C/	0r	2A/]	0r
1D	.	2F/	.
.	.	1E	.
2C#i/	.	.	.
=42	=42	=42	=42
0D	0r	1D	1r
.	.	2r	1a
.	.	2D/	.
=43	=43	=43	=43
2GG/	0r	4G/	1b
.	.	4A/	.
2.G\	.	4B\	.
.	.	4c\	.
.	.	2d\	[1g
4F\	.	.	.
4E\	.	[2e\	.
4D\	.	.	.
=44	=44	=44	=44
2C/	1r	4e\]	2g/]
.	.	4d\	.
2E\	.	1c	4f/
.	.	.	4e/
1D	1d	.	1f
.	.	2B\	.
=45	=45	=45	=45
0C	1e	1c	2.e/
.	.	.	4f/
.	[1c	[1e	2g/
.	.	.	2a/
=46	=46	=46	=46
1r	2c\]	2e\]	2g/
.	4B\	2e\	1a
.	4A/	.	.
1E	1B	1e	.
.	.	.	2g/
=47	=47	=47	=47
2.F\	[0A	2.c\	2a/
.	.	.	2f/
4E\	.	4d\	.
2C/	.	2e\	2e/
2D\	.	2f\	[2a/
=48	=48	=48	=48
2C/	0A]	2e\	2a/]
2D\	.	1d	2f/
1AA	.	.	1e
.	.	2c#i\	.
=49	=49	=49	=49
1BB-	1D	[0dl	1.d
1GG	1G	.	.
.	.	.	2e/
=50	=50	=50	=50
[0Dl	3%2FV	0d_	[0fl
.	3%2D	.	.
.	3%2AZ	.	.
=51	=51	=51	=51
0D_	3%2FV	0d_	0f_
.	3%2.B-	.	.
.	3A/Z	.	.
=52	=52	=52	=52
0D]	0Al	0d]	0f]
!!LO:LB:i:g=z
=53||	=53||	=53||	=53||
*>C	*>C	*>C	*>C
!!section: Kyrie II
!!!OMD: Kyrie II
*M3/1	*M3/1	*M3/1	*M3/1
*met(O)	*met(O)	*met(O)	*met(O)
0.r	0.r	0.r	1.g
.	.	.	2g/
.	.	.	1g
=54	=54	=54	=54
0.r	0.r	1.c	2.e/
.	.	.	4f/
.	.	.	2g/
.	.	2c\	2.a/
.	.	1c	.
.	.	.	4g/
.	.	.	[2cc\
=55	=55	=55	=55
0.r	0.r	2.A/	4cc\]
.	.	.	4b\
.	.	.	2a/
.	.	4B\	.
.	.	2c\	2g/
.	.	2.d\	2f/
.	.	.	1e
.	.	4c\	.
.	.	2g\	.
=56	=56	=56	=56
0.r	0.r	2f\	2.d/
.	.	2.d\	.
.	.	.	4e/
.	.	.	2f/
.	.	4c\	.
.	.	2B\	2g/
.	.	2A/	2a/
.	.	2G/	[2b\
=57	=57	=57	=57
0.r	1.G	2.g\	4b\]
.	.	.	4g/
.	.	.	2.dd\
.	.	4f\	.
.	.	2g\	.
.	.	.	4cc\
.	2G/	2e\	1cc
.	1G	1d	.
.	.	.	2b\
=58	=58	=58	=58
1.C	2.E/	0.c	0.cc
.	4F/	.	.
.	2G/	.	.
2C/	2.A/	.	.
1C	.	.	.
.	4G/	.	.
.	[2c\	.	.
=59	=59	=59	=59
2.AA/	4c\]	0.r	0.r
.	4B\	.	.
.	2A/	.	.
4BB/	.	.	.
2C/	2G/	.	.
2.D\	2F/	.	.
.	1E	.	.
4C/	.	.	.
2G\	.	.	.
=60	=60	=60	=60
2F\	4D/	0.r	1r
.	4E/	.	.
2.D\	4F/	.	.
.	4G/	.	.
.	2A/	.	1r
4C/	.	.	.
2BB/	1G	.	.
1AA	.	.	1a
.	2F#i/	.	.
=61	=61	=61	=61
0.r	1.G	1.d	1.b
.	2E/	2.e\	2g/
.	1E	.	1g
.	.	4d\	.
.	.	2e\	.
=62	=62	=62	=62
1r	1.F	1.c	1.a
1r	.	.	.
.	2D/	2.d\	2f/
1D	1A	.	1f
.	.	4c\	.
.	.	2d\	.
=63	=63	=63	=63
1.E	2G/	1.B	1.g
.	2E/	.	.
.	0e	.	.
2C/	.	2.c\	2e/
1C	.	.	1e
.	.	4B\	.
.	.	2c\	.
=64	=64	=64	=64
1D	1d	1A	1f
1E	1B	1G	1g
1C	2.c\	2r	1e
.	.	2e\	.
.	4B\	.	.
=65	=65	=65	=65
2D\	2A/	2d\	2f/
1E	2G/	2B\	1g
.	1e	2.c\	.
2C/	.	.	2e/
.	.	4B\	.
2D\	2d\	2A/	2f/
2E\	2B\	2G/	2g/
=66	=66	=66	=66
2C/	2c\	2e\	2e/
2D\	2A/	2d\	2f/
2E\	2G/	2B\	2g/
2C/	2.A/	2e\	2e/
2D\	.	2d\	2f/
.	4B\	.	.
2E\	2G/	2B\	2g/
=67	=67	=67	=67
2C/	1A	2e\	2e/
2D\	.	2d\	2.f/
2E\	2G/	2B\	.
.	.	.	4e/
2C/	2E/	2c\	1e
1D	1F	1A	.
.	.	.	2d/
=68	=68	=68	=68
2r	[0.El	1B	[0.el
1G	.	.	.
.	.	1.G	.
2E\	.	.	.
1E	.	.	.
.	.	2E/	.
=69	=69	=69	=69
2r	0.E_	2E/	0.e_
1C	.	2.e\	.
.	.	4d\	.
2AA/	.	4c\	.
.	.	4B\	.
1AA	.	1c	.
=70	=70	=70	=70
0.El	0.E]	0.Bl	0.e]
==	==	==	==
*-	*-	*-	*-
!!!RDF**kern: l=long note in original notation
!!!RDF**kern: i=editorial accidental
!!!ENC:	Will Watson 01/09/2011; Victoria Chang 04/09/2011
!!!END:	2011/04/09/
!!!EED:	Jesse Rodin
!!!EEV:	2011/09/14/
!!attribution-level@Jos: 1 (secure)
!!!ONB:	Translated from MusicXML and edited on 2011/09/14/ by Craig Sapp
!!muse2ps: T^@{OPR}^u^@{ONM}{. }@{OTL}^C^@{COM}\n@{SCT}^i2I100v85,90,85,150c110Q16
